X: 16072
T: Green Fields Of Rossbeigh, The
R: reel
M: 4/4
K: Edorian
A|BE~E2 BAFB|ABde fded|BE~E2 BAFA|BFAF E2FA|
~B3d BAFB|ABde fded|BE~E2 BAFA|BFAF E3:|
z|Bdef g2fe|dB~B2 dBAd|Bdef gefe|dBAF E2ef|
~g3a gfeg|f2eg fedB|ABde fdfe|dBAF E3:|

